assets/icons/standard/multi_picklist.svg

<?xml version="1.0"?><svg xmlns="http://www.w3.org/2000/svg" width="100" height="100" viewBox="0 0 100 100"><path fill="#fff" d="m73 20h-32c-3.3 0-6 2.7-6 6v1c0 0.6 0.4 1 1 1h29c3.3 0 6 2.7 6 6v31c0 0.6 0.4 1 1 1h1c3.3 0 6-2.7 6-6v-34c0-3.3-2.7-6-6-6z m-14 14h-32c-3.3 0-6 2.7-6 6v34c0 3.3 2.7 6 6 6h32c3.3 0 6-2.7 6-6v-34c0-3.3-2.7-6-6-6z m-24 36c0 1.1-0.9 2-2 2h-2c-1.1 0-2-0.9-2-2v-2c0-1.1 0.9-2 2-2h2c1.1 0 2 0.9 2 2v2z m0-12c0 1.1-0.9 2-2 2h-2c-1.1 0-2-0.9-2-2v-2c0-1.1 0.9-2 2-2h2c1.1 0 2 0.9 2 2v2z m0-12c0 1.1-0.9 2-2 2h-2c-1.1 0-2-0.9-2-2v-2c0-1.1 0.9-2 2-2h2c1.1 0 2 0.9 2 2v2z m22 24c0 1.1-0.9 2-2 2h-13.8c-1.1 0-2-0.9-2-2v-2c0-1.1 0.9-2 2-2h13.8c1.1 0 2 0.9 2 2v2z m0-12c0 1.1-0.9 2-2 2h-13.8c-1.1 0-2-0.9-2-2v-2c0-1.1 0.9-2 2-2h13.8c1.1 0 2 0.9 2 2v2z m0-12c0 1.1-0.9 2-2 2h-13.8c-1.1 0-2-0.9-2-2v-2c0-1.1 0.9-2 2-2h13.8c1.1 0 2 0.9 2 2v2z"></path></svg>

<svg xmlns="http://www.w3.org/2000/svg" x="0px" y="0px"
	 width="100px" height="100px" viewBox="0 0 100 100" enable-background="new 0 0 100 100" xml:space="preserve">
<path fill="#FFFFFF" d="M73,20H41c-3.3,0-6,2.7-6,6v1c0,0.6,0.4,1,1,1h29c3.3,0,6,2.7,6,6v31c0,0.6,0.4,1,1,1h1c3.3,0,6-2.7,6-6V26
	C79,22.7,76.3,20,73,20z"/>
<path fill="#FFFFFF" d="M59,34H27c-3.3,0-6,2.7-6,6v34c0,3.3,2.7,6,6,6h32c3.3,0,6-2.7,6-6V40C65,36.7,62.3,34,59,34z M35,70
	c0,1.1-0.9,2-2,2h-2c-1.1,0-2-0.9-2-2v-2c0-1.1,0.9-2,2-2h2c1.1,0,2,0.9,2,2V70z M35,58c0,1.1-0.9,2-2,2h-2c-1.1,0-2-0.9-2-2v-2
	c0-1.1,0.9-2,2-2h2c1.1,0,2,0.9,2,2V58z M35,46c0,1.1-0.9,2-2,2h-2c-1.1,0-2-0.9-2-2v-2c0-1.1,0.9-2,2-2h2c1.1,0,2,0.9,2,2V46z
	 M57,70c0,1.1-0.9,2-2,2H41.2c-1.1,0-2-0.9-2-2v-2c0-1.1,0.9-2,2-2H55c1.1,0,2,0.9,2,2V70z M57,58c0,1.1-0.9,2-2,2H41.2
	c-1.1,0-2-0.9-2-2v-2c0-1.1,0.9-2,2-2H55c1.1,0,2,0.9,2,2V58z M57,46c0,1.1-0.9,2-2,2H41.2c-1.1,0-2-0.9-2-2v-2c0-1.1,0.9-2,2-2H55
	c1.1,0,2,0.9,2,2V46z"/>
</svg>
